<?xml version="1.0" encoding="UTF-8"?>
<map version="1.10" tiledversion="1.11.2" orientation="orthogonal" renderorder="right-down" width="8" height="6" tilewidth="16" tileheight="16" infinite="0" nextlayerid="8" nextobjectid="12">
 <tileset firstgid="1" source="tiles.tsx"/>
 <layer id="1" name="ground" width="8" height="6">
  <data encoding="csv">
0,0,0,0,0,0,0,0,
0,231,231,231,231,231,231,0,
0,231,231,231,231,231,231,0,
0,231,231,231,231,231,231,0,
0,231,231,231,231,231,231,0,
0,0,0,231,231,0,0,0
</data>
 </layer>
 <layer id="4" name="foreground" width="8" height="6">
  <data encoding="csv">
27,28,29,30,31,30,31,32,
52,0,0,0,0,0,0,57,
52,0,0,0,0,0,0,57,
77,0,0,0,0,0,0,82,
102,304,0,0,0,0,304,107,
127,128,128,0,0,131,128,132
</data>
 </layer>
 <objectgroup id="2" name="exits">
  <object id="1" name="exit" x="48" y="80" width="16" height="16">
   <properties>
    <property name="to_map" value="map.tmx"/>
    <property name="to_x" type="int" value="9"/>
    <property name="to_y" type="int" value="11"/>
   </properties>
  </object>
 </objectgroup>
 <objectgroup id="3" name="walkable">
  <object id="2" x="0" y="80" width="48" height="16"/>
  <object id="3" x="0" y="16" width="16" height="64"/>
  <object id="4" x="0" y="0" width="128" height="16"/>
  <object id="5" x="112" y="16" width="16" height="64"/>
  <object id="6" x="80" y="80" width="48" height="16"/>
 </objectgroup>
 <objectgroup id="5" name="objects">
  <object id="9" name="player_start" x="64" y="64" width="16" height="16"/>
 </objectgroup>
 <objectgroup id="6" name="enemies"/>
 <objectgroup id="7" name="npcs">
  <object id="10" name="npc_spawn" x="32" y="32" width="16" height="16">
   <properties>
    <property name="dialog_1" value="Welcome to my humble abode."/>
    <property name="dialog_2" value="Feel free to look around."/>
    <property name="dialog_3" value="Don't mind the slimes outside."/>
    <property name="wandering_area" value="living_room"/>
   </properties>
  </object>
  <object id="11" name="wandering_area" x="16" y="16" width="96" height="64">
   <properties>
    <property name="area_name" value="living_room"/>
   </properties>
  </object>
 </objectgroup>
</map>
