<?xml version="1.0" encoding="UTF-8"?>
<map version="1.10" tiledversion="1.11.2" orientation="orthogonal" renderorder="right-down" width="50" height="38" tilewidth="16" tileheight="16" infinite="0" nextlayerid="5" nextobjectid="32">
 <tileset firstgid="1" source="tiles.tsx"/>
 <layer id="1" name="ground" width="50" height="38" locked="1">
  <data encoding="csv">
177,178,178,178,178,178,178,178,178,178,178,178,178,178,178,178,178,178,178,178,178,178,178,178,178,178,178,178,178,178,178,178,178,178,178,178,178,178,178,178,178,178,178,178,178,178,178,178,178,185,
202,245,244,245,244,245,244,245,244,245,244,245,244,245,244,245,244,245,244,245,244,245,244,245,244,245,244,245,244,245,244,245,244,245,244,245,244,245,244,245,244,245,244,245,244,245,244,245,244,210,
202,220,219,220,219,220,219,220,219,220,219,220,219,220,219,220,219,220,219,220,219,220,219,220,219,220,219,220,219,220,219,220,219,220,219,220,219,220,219,220,219,220,219,220,219,220,219,220,219,210,
202,245,244,245,244,245,244,245,244,245,244,245,244,245,244,245,244,245,244,245,244,245,244,245,244,245,244,245,244,245,244,245,244,245,244,245,244,245,244,245,244,245,244,245,244,245,244,245,244,210,
202,220,219,220,219,220,219,220,219,220,219,220,219,220,219,220,219,220,219,220,219,220,219,220,219,220,219,220,219,220,219,220,219,220,219,220,219,220,219,220,219,220,219,220,219,220,219,220,219,210,
202,245,244,245,244,245,244,245,244,245,244,245,244,245,244,245,244,245,244,245,244,245,244,245,244,245,244,245,244,245,244,245,244,245,244,245,244,245,244,245,244,245,244,245,244,245,244,245,244,210,
202,220,219,220,219,220,219,220,219,220,219,220,219,220,219,220,219,220,219,220,197,198,219,220,219,220,219,220,219,220,219,220,219,220,219,220,219,220,219,220,219,220,219,220,219,220,219,220,219,210,
202,245,244,245,244,245,244,245,244,245,244,245,244,245,244,245,244,245,244,245,222,223,244,245,244,245,244,245,244,245,244,245,244,245,244,245,244,245,244,245,244,245,244,245,244,245,244,245,244,210,
202,220,219,220,219,220,219,220,219,220,219,220,219,220,219,220,219,220,219,220,219,220,219,220,219,220,219,220,219,220,219,220,219,220,219,220,219,220,219,220,219,220,219,220,219,220,219,220,219,210,
202,245,244,245,244,245,244,245,244,245,244,245,244,245,244,245,244,245,244,245,244,245,244,245,244,245,244,245,244,245,244,245,244,245,244,245,244,245,244,245,244,245,244,245,244,245,244,245,244,210,
202,220,219,220,219,220,219,220,219,220,219,220,219,220,219,220,219,220,219,220,219,220,219,220,219,220,219,220,219,220,219,220,219,220,219,220,219,220,219,220,219,220,219,220,219,220,219,220,219,210,
202,245,244,245,244,245,244,245,244,245,244,245,244,245,244,245,244,245,244,245,244,245,244,245,244,245,244,245,244,245,244,245,244,245,244,245,244,245,244,245,244,245,244,245,244,245,244,245,244,210,
202,220,219,220,219,220,219,220,219,220,219,220,219,220,219,220,219,220,219,220,219,220,219,220,219,220,219,220,219,220,219,220,219,220,219,220,219,220,219,220,219,220,219,220,219,220,219,220,219,210,
202,245,244,245,244,245,244,245,244,245,244,245,244,245,244,245,244,245,244,245,244,245,244,245,244,245,244,245,244,245,244,245,244,245,244,245,244,245,244,245,244,245,244,245,244,245,244,245,244,210,
202,220,219,220,219,220,219,220,219,220,219,220,219,220,219,220,219,220,219,220,219,220,219,220,219,220,219,220,219,220,219,220,219,220,219,220,219,220,219,220,219,220,219,220,219,220,219,220,219,210,
202,245,244,245,244,245,244,245,244,245,244,245,244,245,244,245,244,245,244,245,244,245,244,245,244,245,244,245,244,245,244,245,244,245,244,245,244,245,244,245,244,245,244,245,244,245,244,245,244,210,
202,220,219,220,219,220,219,220,219,220,219,220,219,220,219,220,219,220,219,220,219,220,219,220,219,220,219,220,219,220,219,220,219,220,219,220,219,220,219,220,219,220,219,220,219,220,219,220,219,210,
202,245,244,245,244,245,244,245,244,245,244,245,244,245,244,245,244,245,244,245,244,245,244,245,244,245,244,245,244,245,244,245,244,245,244,245,244,245,244,245,244,245,244,245,244,245,244,245,244,210,
202,220,219,220,219,220,219,220,219,220,219,220,219,220,219,220,219,220,219,220,219,220,219,220,219,220,219,220,219,220,219,220,219,220,219,220,219,220,219,220,219,220,219,220,219,220,219,220,219,210,
202,245,244,245,244,245,244,245,244,245,244,245,244,245,244,245,244,245,244,245,244,245,244,245,244,245,244,245,244,245,244,245,244,245,244,245,244,245,244,245,244,245,244,245,244,245,244,245,244,210,
202,220,219,220,219,220,219,220,219,220,219,220,219,220,219,220,219,220,219,220,219,220,219,220,219,220,219,220,219,220,219,220,219,220,219,220,219,220,219,220,219,220,219,220,219,220,219,220,219,210,
202,245,244,245,244,245,244,245,244,245,244,245,244,245,244,245,244,245,244,245,244,245,244,245,244,245,244,245,244,245,244,245,244,245,244,245,244,245,244,245,244,245,244,245,244,245,244,245,244,210,
202,220,219,220,219,220,219,220,219,220,219,220,219,220,219,220,219,220,219,220,219,220,219,220,219,220,219,220,219,220,219,220,219,220,219,220,219,220,219,220,219,220,219,220,219,220,219,220,219,210,
202,245,244,245,244,245,244,245,244,245,244,245,244,245,244,245,244,245,244,245,244,245,244,245,244,245,244,245,244,245,244,245,244,245,244,245,244,245,244,245,244,245,244,245,244,245,244,245,244,210,
202,220,219,220,219,220,219,220,219,220,219,220,219,220,219,220,219,220,219,220,219,220,219,220,219,220,219,220,219,220,219,220,219,220,219,220,219,220,219,220,219,220,219,220,219,220,219,220,219,210,
202,245,244,245,244,245,244,245,244,245,244,245,244,245,244,245,244,245,244,245,244,245,244,245,244,245,244,245,244,245,244,245,244,245,244,245,244,245,244,245,244,245,244,245,244,245,244,245,244,210,
202,220,219,220,219,220,219,220,219,220,219,220,219,220,219,220,219,220,219,220,219,220,219,220,219,220,219,220,219,220,219,220,219,220,219,220,219,220,219,220,219,220,219,220,219,220,219,220,219,210,
202,245,244,245,244,245,244,245,244,245,244,245,244,245,244,245,244,245,244,245,244,245,244,245,244,245,244,245,244,245,244,245,244,245,244,245,244,245,244,245,244,245,244,245,244,245,244,245,244,210,
202,220,219,220,219,220,219,220,219,220,219,220,219,220,219,220,219,220,219,220,219,220,219,220,219,220,219,220,219,220,219,220,219,220,219,220,219,220,219,220,219,220,219,220,219,220,219,220,219,210,
202,245,244,245,244,245,244,245,244,245,244,245,244,245,244,245,244,245,244,245,244,245,244,245,244,245,244,245,244,245,244,245,244,245,244,245,244,245,244,245,244,245,244,245,244,245,244,245,244,210,
202,220,219,220,219,220,219,220,219,220,219,220,219,220,219,220,219,220,219,220,219,220,219,220,219,220,219,220,219,220,219,220,219,220,219,220,219,220,219,220,219,220,219,220,219,220,219,220,219,210,
202,245,244,245,244,245,244,245,244,245,244,245,244,245,244,245,244,245,244,245,244,245,244,245,244,245,244,245,244,245,244,245,244,245,244,245,244,245,244,245,244,245,244,245,244,245,244,245,244,210,
202,220,219,220,219,220,219,220,219,220,219,220,219,220,219,220,219,220,219,220,219,220,219,220,219,220,219,220,219,220,219,220,219,220,219,220,219,220,219,220,219,220,219,220,219,220,219,220,219,210,
202,245,244,245,244,245,244,245,244,245,244,245,244,245,244,245,244,245,244,245,244,245,244,245,244,245,244,245,244,245,244,245,244,245,244,245,244,245,244,245,244,245,244,245,244,245,244,245,244,210,
202,220,219,220,219,220,219,220,219,220,219,220,219,220,219,220,219,220,219,220,219,220,219,220,219,220,219,220,219,220,219,220,219,220,219,220,219,220,219,220,219,220,219,220,219,220,219,220,219,210,
202,245,244,245,244,245,244,245,244,245,244,245,244,245,244,245,244,245,244,245,244,245,244,245,244,245,244,245,244,245,244,245,244,245,244,245,244,245,244,245,244,245,244,245,244,245,244,245,244,210,
202,220,219,220,219,220,219,220,219,220,219,220,219,220,219,220,219,220,219,220,219,220,219,220,219,220,219,220,219,220,219,220,219,220,219,220,219,220,219,220,219,220,219,220,219,220,219,220,219,210,
252,253,253,253,253,253,253,253,253,253,253,253,253,253,253,253,253,253,253,253,253,253,253,253,253,253,253,253,253,253,253,253,253,253,253,253,253,253,253,253,253,253,253,253,253,253,253,253,253,260
</data>
 </layer>
 <layer id="3" name="foreground" width="50" height="38" locked="1">
  <data encoding="csv">
0,0,0,0,0,0,0,0,0,0,0,0,0,0,0,0,0,0,0,0,0,0,0,0,0,0,0,0,0,0,0,0,0,0,0,0,0,0,0,0,0,0,0,0,0,0,0,0,0,0,
0,0,0,0,0,0,0,0,0,0,0,0,0,0,0,0,0,0,0,0,0,0,0,0,0,0,0,0,0,0,0,0,0,0,0,0,0,0,0,0,0,0,0,0,0,0,0,0,0,0,
0,0,0,0,0,0,0,0,0,0,0,0,0,0,0,0,0,0,0,0,0,0,0,0,0,0,0,0,0,0,0,0,0,0,0,0,0,0,0,0,0,0,0,0,0,0,0,0,0,0,
0,0,0,0,0,0,0,0,0,0,0,0,0,0,0,0,0,0,0,0,0,0,0,0,0,0,0,0,0,0,0,0,0,0,0,0,0,0,0,0,0,0,0,0,0,0,0,0,0,0,
0,0,0,0,189,190,190,190,190,190,190,190,190,190,190,190,190,190,190,190,190,190,190,190,191,0,0,0,0,0,59,60,61,62,0,0,0,0,64,65,66,67,68,69,0,0,0,0,0,0,
0,0,0,0,214,0,0,0,0,0,0,0,0,0,0,0,0,0,0,0,0,0,0,0,216,0,0,0,0,0,84,85,86,87,0,0,0,0,89,90,91,92,93,94,0,0,0,0,0,0,
0,0,0,0,214,0,0,27,28,29,30,31,32,0,0,0,0,0,0,0,0,0,0,0,216,0,0,0,0,0,109,110,111,112,0,0,0,0,114,115,116,117,118,119,0,0,0,0,0,0,
0,0,0,0,214,0,0,52,53,54,55,56,57,0,0,0,0,0,0,0,0,0,0,0,216,0,0,0,0,0,134,135,136,137,0,0,0,0,139,140,141,142,143,144,0,0,0,0,0,0,
0,0,0,0,214,0,0,77,78,79,80,81,82,0,0,46,47,48,49,0,0,0,0,0,216,0,0,0,0,0,0,0,0,0,0,0,0,0,0,0,0,0,0,0,0,0,0,0,0,0,
0,0,0,0,214,0,0,102,103,104,105,106,107,0,0,71,72,73,74,0,0,0,0,0,216,0,0,0,0,0,0,0,0,0,0,0,0,0,0,0,0,0,0,0,0,0,0,0,0,0,
0,0,0,0,214,0,0,127,128,129,130,131,132,0,0,96,97,98,99,0,0,0,0,0,216,0,0,0,0,0,0,0,0,0,0,0,0,0,0,0,0,0,0,0,0,0,0,0,0,0,
0,0,0,0,214,0,0,0,0,0,0,0,0,0,0,121,122,123,124,0,0,0,0,0,216,0,0,0,0,0,0,0,0,0,0,0,0,0,0,0,0,0,0,0,0,0,302,0,0,0,
0,0,0,0,214,0,0,0,0,0,0,0,0,0,0,146,147,148,149,0,0,0,0,0,216,0,0,0,0,0,0,0,0,0,0,0,0,0,0,0,0,0,0,0,0,0,0,0,0,0,
0,0,0,0,214,0,0,0,0,0,0,0,187,0,0,0,0,0,0,0,0,0,0,0,216,0,0,0,0,0,0,0,0,0,0,303,0,0,0,0,0,0,0,0,0,0,0,0,0,0,
0,0,0,0,214,0,0,0,0,0,0,0,212,0,0,0,0,0,0,0,0,0,0,0,216,0,0,0,0,0,0,0,0,0,0,0,0,0,0,0,0,0,0,0,0,0,0,0,0,0,
0,0,0,0,214,304,304,305,303,0,0,0,305,303,303,304,304,303,303,302,305,305,302,305,216,0,0,0,0,0,0,0,0,0,0,0,0,0,0,0,0,0,0,0,0,0,0,0,0,0,
0,0,0,0,239,240,240,240,240,0,0,0,240,240,240,240,240,240,240,240,240,240,240,240,241,0,0,0,0,305,0,0,0,0,0,0,0,0,0,0,0,0,0,0,0,0,0,0,0,0,
0,0,0,0,0,0,0,0,0,0,0,0,0,0,0,0,0,0,0,0,0,0,0,0,0,0,0,0,0,0,0,0,0,0,0,0,0,0,0,0,0,0,0,0,0,0,0,0,0,0,
0,0,0,0,0,0,0,0,0,0,0,0,0,0,0,0,0,0,0,0,0,0,0,0,0,0,0,0,0,0,0,0,0,0,0,0,0,0,0,0,0,0,0,0,0,0,303,0,0,0,
0,0,0,0,0,0,0,0,0,0,0,0,0,0,0,0,0,0,0,0,0,0,0,0,0,0,0,0,0,0,0,0,0,0,0,0,0,0,0,302,0,0,0,0,0,0,0,0,0,0,
0,0,0,0,0,303,0,0,0,0,0,0,0,0,0,0,0,0,0,0,0,0,0,0,0,0,0,0,0,0,0,0,0,0,0,0,0,0,0,0,0,0,0,0,0,0,0,0,0,0,
0,0,0,0,0,0,0,0,0,0,0,0,0,0,0,304,0,0,0,0,0,0,0,0,0,0,0,0,0,0,0,0,0,0,0,0,0,0,0,0,0,0,0,0,0,0,0,0,0,0,
0,0,0,0,0,0,0,0,0,0,0,0,0,0,0,0,0,0,0,0,0,0,0,0,0,0,0,0,0,0,0,0,0,0,0,0,0,0,0,0,0,0,0,0,0,0,0,0,0,0,
0,0,0,0,0,0,303,0,0,0,0,302,0,0,0,0,0,0,0,0,0,0,0,0,0,0,0,0,0,0,0,0,0,0,0,0,0,0,0,0,0,0,303,0,0,0,0,0,0,0,
0,0,0,0,0,0,0,0,0,0,0,0,0,0,0,0,0,0,0,0,0,0,304,0,0,0,0,0,0,0,0,0,0,304,0,0,0,0,0,0,0,0,0,0,0,0,0,0,0,0,
0,0,0,0,0,0,0,0,0,0,0,0,0,0,305,0,0,0,0,0,0,0,0,0,0,0,0,0,0,0,0,0,0,0,0,0,0,0,0,0,0,0,0,0,0,0,0,0,0,0,
0,0,0,0,0,0,0,0,0,0,0,0,0,0,0,0,0,0,0,0,0,0,0,0,0,0,0,0,0,0,0,0,0,0,0,0,0,0,0,0,0,0,0,0,0,0,0,0,0,0,
0,0,0,0,0,0,0,0,0,303,0,0,0,0,0,0,0,0,0,0,0,0,0,0,0,0,0,0,0,0,0,0,0,0,0,0,0,0,0,0,0,0,0,0,303,0,0,0,0,0,
0,0,0,303,0,0,0,0,0,0,0,0,0,0,0,0,0,0,0,0,0,0,0,0,0,0,0,0,0,0,304,0,0,0,0,0,0,0,0,0,0,0,0,0,0,0,0,0,0,0,
0,0,0,0,0,0,0,0,0,0,0,0,0,0,0,0,0,0,0,0,0,0,0,0,0,0,0,0,0,0,0,0,0,0,0,0,303,304,0,0,0,0,0,0,0,0,0,0,0,0,
0,0,0,0,0,0,0,0,0,0,0,0,0,0,0,0,0,0,0,0,0,0,0,0,0,0,0,0,0,0,0,0,0,0,0,0,0,0,0,0,0,0,0,0,0,0,0,0,0,0,
0,0,0,0,0,0,0,0,0,0,0,0,0,0,0,0,303,0,0,0,0,0,0,0,0,0,0,0,0,0,0,0,0,0,0,0,0,0,0,0,0,0,0,0,0,0,0,0,0,0,
0,0,0,0,0,0,0,0,0,0,0,0,0,0,0,0,0,0,0,0,0,0,0,0,0,0,0,0,0,303,0,0,0,0,0,0,0,0,0,0,0,0,0,0,0,0,0,0,0,0,
0,0,0,0,0,0,0,305,0,0,0,0,0,0,0,0,0,0,0,0,0,0,0,0,0,0,0,0,0,0,0,0,0,0,0,0,0,0,0,0,0,0,0,0,0,0,0,0,0,0,
0,0,0,0,0,0,0,0,0,0,0,0,0,0,302,0,0,0,0,0,0,0,0,0,0,0,0,0,0,0,0,0,0,0,0,0,0,0,0,305,0,0,0,0,0,0,0,0,0,0,
0,0,0,0,0,0,0,0,0,0,0,0,0,0,0,0,0,0,0,0,0,0,0,0,0,0,0,0,0,0,0,0,0,0,0,0,0,0,0,0,0,0,0,0,302,0,0,0,0,0,
0,0,0,0,0,0,0,0,0,0,0,0,0,0,0,0,0,0,0,0,0,0,0,0,0,0,0,0,0,0,0,0,0,0,0,0,0,0,0,0,0,0,0,0,0,0,0,0,0,0,
0,0,0,0,0,0,0,0,0,0,0,0,0,0,0,0,0,0,0,0,0,0,0,0,0,0,0,0,0,0,0,0,0,0,0,0,0,0,0,0,0,0,0,0,0,0,0,0,0,0
</data>
 </layer>
 <objectgroup id="4" name="exits" locked="1">
  <object id="27" name="exit" x="144" y="160" width="32" height="16">
   <properties>
    <property name="to_map" value="bluehouse.tmx"/>
    <property name="to_x" type="int" value="3"/>
    <property name="to_y" type="int" value="4"/>
   </properties>
  </object>
 </objectgroup>
 <objectgroup id="5" name="objects">
  <object id="32" name="player_start" x="160" y="160" width="16" height="16"/>
 </objectgroup>
 <objectgroup id="2" name="walkable">
  <object id="1" x="0" y="0" width="800" height="16"/>
  <object id="2" x="416" y="-128" rotation="90"/>
  <object id="3" x="0" y="16" width="16" height="592"/>
  <object id="7" x="16" y="592" width="768" height="16"/>
  <object id="8" x="784" y="16" width="16" height="592"/>
  <object id="9" x="608" y="80" width="96" height="48"/>
  <object id="10" x="480" y="80" width="64" height="48"/>
  <object id="11" x="64" y="64" width="336" height="16"/>
  <object id="12" x="384" y="80" width="16" height="192"/>
  <object id="13" x="192" y="256" width="192" height="16"/>
  <object id="14" x="64" y="256" width="80" height="16"/>
  <object id="23" x="64" y="80" width="16" height="176"/>
  <object id="25" x="240" y="160" width="64" height="48"/>
  <object id="26" x="192" y="224" width="16" height="16"/>
  <object id="29" x="112" y="112" width="32" height="64"/>
  <object id="30" x="176" y="112" width="32" height="64"/>
  <object id="31" x="144" y="112" width="32" height="48"/>
 </objectgroup>
</map>
